src/icons/nix.svg

<svg width="16" height="16" viewBox="0 0 16 16" fill="none" xmlns="http://www.w3.org/2000/svg">
<path fill-rule="evenodd" clip-rule="evenodd" d="M9.28296 5.432L12.207 10.782L12.889 9.559L12.102 8.126L13.666 8.122L14 7.512L13.66 6.886L11.432 6.894L10.632 5.435L9.28296 5.432ZM9.05896 9.709H3.20996L3.87096 10.945L5.43996 10.941L4.65996 12.375L4.99496 12.985L5.67696 12.986L6.78496 10.944L8.37996 10.941L9.05896 9.709ZM5.65496 7.364L8.57896 2.014L7.23496 2L6.45496 3.438L5.66896 2.008H4.99996L4.65796 2.632L5.77796 4.667L4.98296 6.129L5.65496 7.364Z" fill="#89DDFF"/>
<path fill-rule="evenodd" clip-rule="evenodd" d="M10.338 7.63601L7.415 12.986L8.758 13L9.538 11.562L10.325 12.992H10.992L11.334 12.368L10.214 10.333L11.009 8.87101L10.338 7.63601ZM6.947 5.27901H12.794L12.134 4.04201L10.564 4.04701L11.344 2.61301L11.01 2.00201H10.327L9.22 4.04201L7.624 4.04601L6.947 5.27901ZM6.717 9.56701L3.793 4.21701L3.111 5.44001L3.899 6.87301L2.334 6.87701L2 7.48701L2.34 8.11301L4.568 8.10501L5.368 9.56401L6.717 9.56701Z" fill="#82AAFF"/>
</svg>

<svg xmlns="http://www.w3.org/2000/svg" width="16" height="16" fill="none"><path fill="#89DDFF" fill-rule="evenodd" d="m9.283 5.432 2.924 5.35.682-1.223-.787-1.433 1.564-.004.334-.61-.34-.626-2.228.008-.8-1.459zM9.059 9.709H3.21l.661 1.236 1.569-.004-.78 1.434.335.61.682.001 1.108-2.042 1.595-.003zM5.655 7.364l2.924-5.35L7.235 2l-.78 1.438-.786-1.43H5l-.342.624 1.12 2.035-.795 1.462z" clip-rule="evenodd"/><path fill="#82AAFF" fill-rule="evenodd" d="m10.338 7.636-2.923 5.35L8.758 13l.78-1.438.787 1.43h.667l.342-.624-1.12-2.035.795-1.462zM6.947 5.279h5.847l-.66-1.237-1.57.005.78-1.434-.334-.611h-.683L9.22 4.042l-1.596.004zM6.717 9.567l-2.924-5.35-.682 1.223.788 1.433-1.565.004-.334.61.34.626 2.228-.008.8 1.459z" clip-rule="evenodd"/></svg>
